X: 14935
T: Gavotte
R: three-two
M: 3/2
K: Aminor
M:3/4
|:AGAB c2|Bcdc B2|AGAB c2|Bcdc B2:|
|:c2 dc B2|ABcB AG|c2 dc B2|ABcB A2:|

